images/4026888.svg

<?xml version="1.0" encoding="UTF-8"?>
<svg xmlns="http://www.w3.org/2000/svg" xmlns:xlink="http://www.w3.org/1999/xlink" width="300pt" height="300pt" viewBox="0 0 300 300" version="1.1">
<defs>
<g>
<symbol overflow="visible" id="glyph0-0">
<path style="stroke:none;" d="M 0.453125 1.59375 L 0.453125 -6.34375 L 4.953125 -6.34375 L 4.953125 1.59375 Z M 0.953125 1.09375 L 4.453125 1.09375 L 4.453125 -5.84375 L 0.953125 -5.84375 Z M 0.953125 1.09375 "/>
</symbol>
<symbol overflow="visible" id="glyph0-1">
<path style="stroke:none;" d="M 3.546875 -5.953125 C 2.898438 -5.953125 2.382812 -5.710938 2 -5.234375 C 1.625 -4.753906 1.4375 -4.101562 1.4375 -3.28125 C 1.4375 -2.445312 1.625 -1.789062 2 -1.3125 C 2.382812 -0.832031 2.898438 -0.59375 3.546875 -0.59375 C 4.191406 -0.59375 4.703125 -0.832031 5.078125 -1.3125 C 5.453125 -1.789062 5.640625 -2.445312 5.640625 -3.28125 C 5.640625 -4.101562 5.453125 -4.753906 5.078125 -5.234375 C 4.703125 -5.710938 4.191406 -5.953125 3.546875 -5.953125 Z M 3.546875 -6.6875 C 4.460938 -6.6875 5.195312 -6.375 5.75 -5.75 C 6.300781 -5.132812 6.578125 -4.3125 6.578125 -3.28125 C 6.578125 -2.238281 6.300781 -1.410156 5.75 -0.796875 C 5.195312 -0.179688 4.460938 0.125 3.546875 0.125 C 2.617188 0.125 1.878906 -0.179688 1.328125 -0.796875 C 0.773438 -1.410156 0.5 -2.238281 0.5 -3.28125 C 0.5 -4.3125 0.773438 -5.132812 1.328125 -5.75 C 1.878906 -6.375 2.617188 -6.6875 3.546875 -6.6875 Z M 3.546875 -6.6875 "/>
</symbol>
<symbol overflow="visible" id="glyph0-2">
<path style="stroke:none;" d="M 0.890625 -6.5625 L 1.765625 -6.5625 L 1.765625 -3.875 L 5 -3.875 L 5 -6.5625 L 5.890625 -6.5625 L 5.890625 0 L 5 0 L 5 -3.125 L 1.765625 -3.125 L 1.765625 0 L 0.890625 0 Z M 0.890625 -6.5625 "/>
</symbol>
</g>
</defs>
<g id="surface55457">
<rect x="0" y="0" width="300" height="300" style="fill:rgb(100%,100%,100%);fill-opacity:1;stroke:none;"/>
<path style="fill:none;stroke-width:1.2;stroke-linecap:butt;stroke-linejoin:miter;stroke:rgb(0%,0%,0%);stroke-opacity:1;stroke-miterlimit:10;" d="M 35.25 161.128906 L 44.21875 168.964844 "/>
<path style="fill:none;stroke-width:1.2;stroke-linecap:butt;stroke-linejoin:miter;stroke:rgb(100%,0%,0%);stroke-opacity:1;stroke-miterlimit:10;" d="M 44.21875 168.964844 L 53.183594 176.800781 "/>
<path style="fill:none;stroke-width:1.2;stroke-linecap:butt;stroke-linejoin:miter;stroke:rgb(100%,0%,0%);stroke-opacity:1;stroke-miterlimit:10;" d="M 53.183594 176.800781 L 64.453125 172.953125 "/>
<path style="fill:none;stroke-width:1.2;stroke-linecap:butt;stroke-linejoin:miter;stroke:rgb(0%,0%,0%);stroke-opacity:1;stroke-miterlimit:10;" d="M 64.453125 172.953125 L 75.722656 169.105469 "/>
<path style=" stroke:none;fill-rule:nonzero;fill:rgb(100%,100%,100%);fill-opacity:1;" d="M 49.183594 171.300781 L 57.183594 171.300781 L 57.183594 182.300781 L 49.183594 182.300781 Z M 49.183594 171.300781 "/>
<g style="fill:rgb(100%,0%,0%);fill-opacity:1;">
  <use xlink:href="#glyph0-1" x="49.183594" y="179.963867"/>
</g>
<path style="fill:none;stroke-width:1.2;stroke-linecap:butt;stroke-linejoin:miter;stroke:rgb(0%,0%,0%);stroke-opacity:1;stroke-miterlimit:10;" d="M 75.722656 169.105469 L 80.324219 145.738281 "/>
<path style="fill:none;stroke-width:1.2;stroke-linecap:butt;stroke-linejoin:miter;stroke:rgb(0%,0%,0%);stroke-opacity:1;stroke-miterlimit:10;" d="M 81.679688 167.851562 L 85.363281 149.15625 "/>
<path style="fill:none;stroke-width:1.2;stroke-linecap:butt;stroke-linejoin:miter;stroke:rgb(0%,0%,0%);stroke-opacity:1;stroke-miterlimit:10;" d="M 93.65625 184.773438 L 75.722656 169.105469 "/>
<path style="fill:none;stroke-width:1.2;stroke-linecap:butt;stroke-linejoin:miter;stroke:rgb(0%,0%,0%);stroke-opacity:1;stroke-miterlimit:10;" d="M 80.324219 145.738281 L 102.863281 138.039062 "/>
<path style="fill:none;stroke-width:1.2;stroke-linecap:butt;stroke-linejoin:miter;stroke:rgb(0%,0%,0%);stroke-opacity:1;stroke-miterlimit:10;" d="M 102.863281 138.039062 L 120.796875 153.710938 "/>
<path style="fill:none;stroke-width:1.2;stroke-linecap:butt;stroke-linejoin:miter;stroke:rgb(0%,0%,0%);stroke-opacity:1;stroke-miterlimit:10;" d="M 108.34375 135.386719 L 122.691406 147.921875 "/>
<path style="fill:none;stroke-width:1.2;stroke-linecap:butt;stroke-linejoin:miter;stroke:rgb(100%,0%,0%);stroke-opacity:1;stroke-miterlimit:10;" d="M 107.464844 114.675781 L 105.164062 126.355469 "/>
<path style="fill:none;stroke-width:1.2;stroke-linecap:butt;stroke-linejoin:miter;stroke:rgb(0%,0%,0%);stroke-opacity:1;stroke-miterlimit:10;" d="M 105.164062 126.355469 L 102.863281 138.039062 "/>
<path style="fill:none;stroke-width:1.2;stroke-linecap:butt;stroke-linejoin:miter;stroke:rgb(0%,0%,0%);stroke-opacity:1;stroke-miterlimit:10;" d="M 120.796875 153.710938 L 116.195312 177.078125 "/>
<path style="fill:none;stroke-width:1.2;stroke-linecap:butt;stroke-linejoin:miter;stroke:rgb(0%,0%,0%);stroke-opacity:1;stroke-miterlimit:10;" d="M 120.796875 153.710938 L 143.335938 146.011719 "/>
<path style="fill:none;stroke-width:1.2;stroke-linecap:butt;stroke-linejoin:miter;stroke:rgb(0%,0%,0%);stroke-opacity:1;stroke-miterlimit:10;" d="M 116.195312 177.078125 L 93.65625 184.773438 "/>
<path style="fill:none;stroke-width:1.2;stroke-linecap:butt;stroke-linejoin:miter;stroke:rgb(0%,0%,0%);stroke-opacity:1;stroke-miterlimit:10;" d="M 112.128906 172.542969 L 94.097656 178.699219 "/>
<path style="fill:none;stroke-width:1.2;stroke-linecap:butt;stroke-linejoin:miter;stroke:rgb(0%,0%,0%);stroke-opacity:1;stroke-miterlimit:10;" d="M 141.492188 148.125 L 150.457031 155.957031 "/>
<path style="fill:none;stroke-width:1.2;stroke-linecap:butt;stroke-linejoin:miter;stroke:rgb(100%,0%,0%);stroke-opacity:1;stroke-miterlimit:10;" d="M 150.457031 155.957031 L 159.425781 163.792969 "/>
<path style="fill:none;stroke-width:1.2;stroke-linecap:butt;stroke-linejoin:miter;stroke:rgb(0%,0%,0%);stroke-opacity:1;stroke-miterlimit:10;" d="M 145.179688 143.902344 L 154.144531 151.738281 "/>
<path style="fill:none;stroke-width:1.2;stroke-linecap:butt;stroke-linejoin:miter;stroke:rgb(100%,0%,0%);stroke-opacity:1;stroke-miterlimit:10;" d="M 154.144531 151.738281 L 163.113281 159.574219 "/>
<path style="fill:none;stroke-width:1.2;stroke-linecap:butt;stroke-linejoin:miter;stroke:rgb(0%,0%,0%);stroke-opacity:1;stroke-miterlimit:10;" d="M 143.335938 146.011719 L 147.9375 122.648438 "/>
<path style=" stroke:none;fill-rule:nonzero;fill:rgb(100%,100%,100%);fill-opacity:1;" d="M 157.269531 156.183594 L 165.269531 156.183594 L 165.269531 167.183594 L 157.269531 167.183594 Z M 157.269531 156.183594 "/>
<g style="fill:rgb(100%,0%,0%);fill-opacity:1;">
  <use xlink:href="#glyph0-1" x="157.269531" y="164.84668"/>
</g>
<path style="fill:none;stroke-width:1.2;stroke-linecap:butt;stroke-linejoin:miter;stroke:rgb(0%,0%,0%);stroke-opacity:1;stroke-miterlimit:10;" d="M 147.9375 122.648438 L 130.003906 106.976562 "/>
<path style="fill:none;stroke-width:1.2;stroke-linecap:butt;stroke-linejoin:miter;stroke:rgb(0%,0%,0%);stroke-opacity:1;stroke-miterlimit:10;" d="M 147.9375 122.648438 L 170.476562 114.949219 "/>
<path style="fill:none;stroke-width:1.2;stroke-linecap:butt;stroke-linejoin:miter;stroke:rgb(0%,0%,0%);stroke-opacity:1;stroke-miterlimit:10;" d="M 130.003906 106.976562 L 118.734375 110.824219 "/>
<path style="fill:none;stroke-width:1.2;stroke-linecap:butt;stroke-linejoin:miter;stroke:rgb(100%,0%,0%);stroke-opacity:1;stroke-miterlimit:10;" d="M 118.734375 110.824219 L 107.464844 114.675781 "/>
<path style=" stroke:none;fill-rule:nonzero;fill:rgb(100%,100%,100%);fill-opacity:1;" d="M 103.464844 109.175781 L 111.464844 109.175781 L 111.464844 120.175781 L 103.464844 120.175781 Z M 103.464844 109.175781 "/>
<g style="fill:rgb(100%,0%,0%);fill-opacity:1;">
  <use xlink:href="#glyph0-1" x="103.464844" y="117.838867"/>
</g>
<path style="fill:none;stroke-width:1.2;stroke-linecap:butt;stroke-linejoin:miter;stroke:rgb(0%,0%,0%);stroke-opacity:1;stroke-miterlimit:10;" d="M 170.476562 114.949219 L 188.410156 130.621094 "/>
<path style="fill:none;stroke-width:1.2;stroke-linecap:butt;stroke-linejoin:miter;stroke:rgb(0%,0%,0%);stroke-opacity:1;stroke-miterlimit:10;" d="M 188.410156 130.621094 L 183.804688 153.988281 "/>
<path style="fill:none;stroke-width:1.2;stroke-linecap:butt;stroke-linejoin:miter;stroke:rgb(0%,0%,0%);stroke-opacity:1;stroke-miterlimit:10;" d="M 193.445312 134.039062 L 189.765625 152.734375 "/>
<path style="fill:none;stroke-width:1.2;stroke-linecap:butt;stroke-linejoin:miter;stroke:rgb(0%,0%,0%);stroke-opacity:1;stroke-miterlimit:10;" d="M 210.945312 122.921875 L 188.410156 130.621094 "/>
<path style="fill:none;stroke-width:1.2;stroke-linecap:butt;stroke-linejoin:miter;stroke:rgb(0%,0%,0%);stroke-opacity:1;stroke-miterlimit:10;" d="M 183.804688 153.988281 L 201.742188 169.65625 "/>
<path style="fill:none;stroke-width:1.2;stroke-linecap:butt;stroke-linejoin:miter;stroke:rgb(0%,0%,0%);stroke-opacity:1;stroke-miterlimit:10;" d="M 201.742188 169.65625 L 224.277344 161.960938 "/>
<path style="fill:none;stroke-width:1.2;stroke-linecap:butt;stroke-linejoin:miter;stroke:rgb(0%,0%,0%);stroke-opacity:1;stroke-miterlimit:10;" d="M 202.183594 163.582031 L 220.214844 157.425781 "/>
<path style="fill:none;stroke-width:1.2;stroke-linecap:butt;stroke-linejoin:miter;stroke:rgb(0%,0%,0%);stroke-opacity:1;stroke-miterlimit:10;" d="M 201.742188 169.65625 L 199.4375 181.339844 "/>
<path style="fill:none;stroke-width:1.2;stroke-linecap:butt;stroke-linejoin:miter;stroke:rgb(100%,0%,0%);stroke-opacity:1;stroke-miterlimit:10;" d="M 199.4375 181.339844 L 197.136719 193.023438 "/>
<path style="fill:none;stroke-width:1.2;stroke-linecap:butt;stroke-linejoin:miter;stroke:rgb(0%,0%,0%);stroke-opacity:1;stroke-miterlimit:10;" d="M 224.277344 161.960938 L 228.882812 138.59375 "/>
<path style="fill:none;stroke-width:1.2;stroke-linecap:butt;stroke-linejoin:miter;stroke:rgb(0%,0%,0%);stroke-opacity:1;stroke-miterlimit:10;" d="M 224.277344 161.960938 L 233.246094 169.792969 "/>
<path style="fill:none;stroke-width:1.2;stroke-linecap:butt;stroke-linejoin:miter;stroke:rgb(100%,0%,0%);stroke-opacity:1;stroke-miterlimit:10;" d="M 233.246094 169.792969 L 242.210938 177.628906 "/>
<path style="fill:none;stroke-width:1.2;stroke-linecap:butt;stroke-linejoin:miter;stroke:rgb(0%,0%,0%);stroke-opacity:1;stroke-miterlimit:10;" d="M 228.882812 138.59375 L 210.945312 122.921875 "/>
<path style="fill:none;stroke-width:1.2;stroke-linecap:butt;stroke-linejoin:miter;stroke:rgb(0%,0%,0%);stroke-opacity:1;stroke-miterlimit:10;" d="M 223.402344 141.246094 L 209.054688 128.710938 "/>
<path style="fill:none;stroke-width:1.2;stroke-linecap:butt;stroke-linejoin:miter;stroke:rgb(100%,0%,0%);stroke-opacity:1;stroke-miterlimit:10;" d="M 242.210938 177.628906 L 253.480469 173.78125 "/>
<path style="fill:none;stroke-width:1.2;stroke-linecap:butt;stroke-linejoin:miter;stroke:rgb(0%,0%,0%);stroke-opacity:1;stroke-miterlimit:10;" d="M 253.480469 173.78125 L 264.75 169.933594 "/>
<path style=" stroke:none;fill-rule:nonzero;fill:rgb(100%,100%,100%);fill-opacity:1;" d="M 238.210938 172.128906 L 246.210938 172.128906 L 246.210938 183.128906 L 238.210938 183.128906 Z M 238.210938 172.128906 "/>
<g style="fill:rgb(100%,0%,0%);fill-opacity:1;">
  <use xlink:href="#glyph0-1" x="238.210938" y="180.791992"/>
</g>
<path style=" stroke:none;fill-rule:nonzero;fill:rgb(100%,100%,100%);fill-opacity:1;" d="M 190.136719 187.523438 L 205.136719 187.523438 L 205.136719 198.523438 L 190.136719 198.523438 Z M 190.136719 187.523438 "/>
<g style="fill:rgb(100%,0%,0%);fill-opacity:1;">
  <use xlink:href="#glyph0-2" x="190.136719" y="196.186523"/>
  <use xlink:href="#glyph0-1" x="197.151367" y="196.186523"/>
</g>
</g>
</svg>

<svg xmlns="http://www.w3.org/2000/svg" xmlns:xlink="http://www.w3.org/1999/xlink" width="300pt" height="300pt" viewBox="0 0 300 300"><defs><symbol overflow="visible"><path d="M.453 1.594v-7.938h4.5v7.938zm.5-.5h3.5v-6.938h-3.5zm0 0"/></symbol><symbol overflow="visible" id="a"><path d="M3.547-5.953c-.65 0-1.164.242-1.547.72-.375.48-.563 1.13-.563 1.952 0 .835.188 1.49.563 1.967.383.48.898.72 1.547.72.644 0 1.156-.24 1.53-.72.376-.476.564-1.132.564-1.968 0-.822-.187-1.474-.562-1.954-.375-.477-.887-.72-1.53-.72zm0-.734c.914 0 1.648.312 2.203.937.55.617.828 1.438.828 2.47 0 1.042-.277 1.87-.828 2.483-.555.617-1.29.922-2.203.922-.93 0-1.668-.305-2.22-.922C.774-1.41.5-2.237.5-3.28c0-1.033.273-1.853.828-2.47.55-.625 1.29-.938 2.22-.938zm0 0"/></symbol><symbol overflow="visible" id="b"><path d="M.89-6.563h.876v2.688H5v-2.688h.89V0H5v-3.125H1.766V0H.89zm0 0"/></symbol></defs><g><path fill="#fff" d="M0 0h300v300H0z"/><path d="M35.25 161.13l8.97 7.835" stroke-width="1.2" stroke="#000" stroke-miterlimit="10" fill="none"/><path d="M44.22 168.965l8.964 7.836M53.184 176.8l11.27-3.847" stroke-width="1.2" stroke="#f00" stroke-miterlimit="10" fill="none"/><path d="M64.453 172.953l11.27-3.848" stroke-width="1.2" stroke="#000" stroke-miterlimit="10" fill="none"/><path d="M49.184 171.3h8v11h-8zm0 0" fill="#fff"/><use xlink:href="#a" x="49.184" y="179.964" fill="#f00"/><path d="M75.723 169.105l4.6-23.367M81.68 167.852l3.683-18.696M93.656 184.773l-17.933-15.668M80.324 145.738l22.54-7.7M102.863 138.04l17.934 15.67M108.344 135.387l14.347 12.535" stroke-width="1.2" stroke="#000" stroke-miterlimit="10" fill="none"/><path d="M107.465 114.676l-2.3 11.68" stroke-width="1.2" stroke="#f00" stroke-miterlimit="10" fill="none"/><path d="M105.164 126.355l-2.3 11.684M120.797 153.71l-4.602 23.368M120.797 153.71l22.54-7.698M116.195 177.078l-22.54 7.695M112.13 172.543L94.097 178.7M141.492 148.125l8.965 7.832" stroke-width="1.2" stroke="#000" stroke-miterlimit="10" fill="none"/><path d="M150.457 155.957l8.97 7.836" stroke-width="1.2" stroke="#f00" stroke-miterlimit="10" fill="none"/><path d="M145.18 143.902l8.965 7.836" stroke-width="1.2" stroke="#000" stroke-miterlimit="10" fill="none"/><path d="M154.145 151.738l8.968 7.836" stroke-width="1.2" stroke="#f00" stroke-miterlimit="10" fill="none"/><path d="M143.336 146.012l4.6-23.364" stroke-width="1.2" stroke="#000" stroke-miterlimit="10" fill="none"/><path d="M157.27 156.184h8v11h-8zm0 0" fill="#fff"/><use xlink:href="#a" x="157.27" y="164.847" fill="#f00"/><path d="M147.938 122.648l-17.934-15.67M147.938 122.648l22.54-7.7M130.004 106.977l-11.27 3.847" stroke-width="1.2" stroke="#000" stroke-miterlimit="10" fill="none"/><path d="M118.734 110.824l-11.27 3.852" stroke-width="1.2" stroke="#f00" stroke-miterlimit="10" fill="none"/><path d="M103.465 109.176h8v11h-8zm0 0" fill="#fff"/><use xlink:href="#a" x="103.465" y="117.839" fill="#f00"/><path d="M170.477 114.95l17.933 15.67M188.41 130.62l-4.605 23.368M193.445 134.04l-3.68 18.694M210.945 122.922l-22.535 7.7M183.805 153.988l17.937 15.668M201.742 169.656l22.535-7.695M202.184 163.582l18.03-6.156M201.742 169.656l-2.304 11.684" stroke-width="1.2" stroke="#000" stroke-miterlimit="10" fill="none"/><path d="M199.438 181.34l-2.3 11.683" stroke-width="1.2" stroke="#f00" stroke-miterlimit="10" fill="none"/><path d="M224.277 161.96l4.606-23.366M224.277 161.96l8.97 7.833" stroke-width="1.2" stroke="#000" stroke-miterlimit="10" fill="none"/><path d="M233.246 169.793l8.965 7.836" stroke-width="1.2" stroke="#f00" stroke-miterlimit="10" fill="none"/><path d="M228.883 138.594l-17.938-15.672M223.402 141.246l-14.347-12.535" stroke-width="1.2" stroke="#000" stroke-miterlimit="10" fill="none"/><path d="M242.21 177.63l11.27-3.85" stroke-width="1.2" stroke="#f00" stroke-miterlimit="10" fill="none"/><path d="M253.48 173.78l11.27-3.846" stroke-width="1.2" stroke="#000" stroke-miterlimit="10" fill="none"/><path d="M238.21 172.13h8v11h-8zm0 0" fill="#fff"/><use xlink:href="#a" x="238.211" y="180.792" fill="#f00"/><path d="M190.137 187.523h15v11h-15zm0 0" fill="#fff"/><g fill="#f00"><use xlink:href="#b" x="190.137" y="196.187"/><use xlink:href="#a" x="197.151" y="196.187"/></g></g></svg>
